X:3
%%staffsep .8in
%%staffwidth 750
T:太湖船 (Boat on Tai Lake)
C:江苏民歌
M:2/4
L:1/8
%%measurenb 0
V:1 clef=treble
K:Bbmaj
%%visualtranspose -10_of_semitones
%%jianpu 1
D'2 F'2 | D'2 C'D' | F'2 D'C' | D'4 | 
D'2 F'2 | D'C' B2 | C'2 D'F' | C'3 D' | 
B2 BG | F3 G | B2 C'D' | B4 | 
C'3 D' | C'3 D' | F'2 G'F' | D'4 | 
D'2 F'2 | D'C' B2 | C'2 D'F' | C'3 D' | 
B2 BG | F3 G | B2 C'D' | B4 ||

